images_sukapura_svg/cmd/lc_bibliographycomponent.svg

<svg viewBox="0 0 24 24" xmlns="http://www.w3.org/2000/svg" xmlns:xlink="http://www.w3.org/1999/xlink"><linearGradient id="a" gradientUnits="userSpaceOnUse" x1="-19.983051" x2="-19.983051" y1="9.016949" y2="-5.983051"><stop offset="0" stop-color="#0040dd"/><stop offset="1" stop-color="#0a84ff"/></linearGradient><radialGradient id="b" cx="17" cy="6.555555" gradientTransform="matrix(1.4285714 -.00000006 .00000006 1.4285714 -7.285714 -4.365078)" gradientUnits="userSpaceOnUse" r="7"><stop offset="0" stop-color="#d7d7d7"/><stop offset=".29999998" stop-color="#f7f7f7"/><stop offset="1" stop-color="#fff"/></radialGradient><linearGradient id="c" gradientUnits="userSpaceOnUse" x1="15" x2="17" y1="7" y2="4.999999"><stop offset="0" stop-color="#fff"/><stop offset=".77967989" stop-color="#f1f1f1"/><stop offset="1" stop-color="#d5d5d5"/></linearGradient><g transform="translate(-3 -1)"><path d="m5 3v18h14v-14.2705905l-4-3.7294095z" fill="url(#b)"/><path d="m5 2c-.554 0-1 .446-1 1v18c0 .554.446 1 1 1h14c.554 0 1-.446 1-1v-10.109375-3.6412209-.2079239c0-.4506799.09887-.4265951-.604637-1.0675892l-3.307389-3.2370335c-.709525-.7368575-.711223-.7368575-1.094804-.7368575h-.331557-.661613zm0 1h9v4c0 .554.446 1 1 1h4v13h-14z" fill="#98989d"/><path d="m15 7h4l-4-4z" fill="#fff" fill-rule="evenodd"/><path d="m15 3 4 4h-4z" fill="url(#c)"/></g><g transform="translate(7 9)"><path d="m0 1h16v13h-16z" fill="url(#a)"/><path d="m1 0v13h7c-1.6828986-.870742-2.6974265-1.079693-3.9042969-1.095703l-2.0957031.095703v-11c5 0 5 1 6 2 1-1 1-2 6-2v11l-2.773438-.115234c-.982758.056789-1.940045.31275-3.226562 1.115234h7v-13c-3 0-3 0-7 2-3-2-3-2-7-2z" fill="#69696e"/><path d="m8 13c-1.6828986-.870742-2.6974265-1.079693-3.9042969-1.095703l-2.0957031.095703v-11c5 0 5 1 6 2 1-1 1-2 6-2v11l-2.773438-.115234c-.982758.056789-1.940045.31275-3.226562 1.115234z" fill="#fff"/><path d="m14 10v10.533203c.311417.131528.63429.277577 1 .466797.357658-.223095.685611-.394936 1-.541016v-10.458984h-.05859c-.358995.305975-.593223.651813-.94141 1-.348187-.348187-.582415-.694025-.941406-1z" fill="#98989d" transform="translate(-7 -8)"/></g></svg>

<?xml version="1.0" encoding="UTF-8" standalone="no"?>
<svg
   xmlns:dc="http://purl.org/dc/elements/1.1/"
   xmlns:cc="http://creativecommons.org/ns#"
   xmlns:rdf="http://www.w3.org/1999/02/22-rdf-syntax-ns#"
   xmlns:svg="http://www.w3.org/2000/svg"
   xmlns="http://www.w3.org/2000/svg"
   xmlns:xlink="http://www.w3.org/1999/xlink"
   xmlns:sodipodi="http://sodipodi.sourceforge.net/DTD/sodipodi-0.dtd"
   xmlns:inkscape="http://www.inkscape.org/namespaces/inkscape"
   viewBox="0 0 24 24"
   version="1.1"
   id="svg12"
   sodipodi:docname="lc_bibliographycomponent.svg"
   inkscape:version="0.92.3 (unknown)"
   inkscape:export-filename="/home/rizmut/Dokumen/Rizmut/Github/libreoffice-style-sukapura/images_sukapura/cmd/lc_bibliographycomponent.png"
   inkscape:export-xdpi="96"
   inkscape:export-ydpi="96">
  <metadata
     id="metadata18">
    <rdf:RDF>
      <cc:Work
         rdf:about="">
        <dc:format>image/svg+xml</dc:format>
        <dc:type
           rdf:resource="http://purl.org/dc/dcmitype/StillImage" />
        <dc:title></dc:title>
      </cc:Work>
    </rdf:RDF>
  </metadata>
  <defs
     id="defs16">
    <clipPath
       clipPathUnits="userSpaceOnUse"
       id="clipPath841">
      <rect
         style="fill:#ffcc00;fill-opacity:1;stroke:#e4b500;stroke-opacity:1"
         id="rect843"
         width="44.296074"
         height="42.570194"
         x="-1277.682"
         y="-629.5105" />
    </clipPath>
    <linearGradient
       gradientTransform="translate(-26.983051,-6.9830508)"
       id="a"
       gradientUnits="userSpaceOnUse"
       x1="14"
       x2="13.79661"
       y1="22"
       y2="2.1355929">
      <stop
         offset="0"
         stop-color="#0040dd"
         id="stop2" />
      <stop
         offset="1"
         stop-color="#0a84ff"
         id="stop4" />
    </linearGradient>
    <linearGradient
       id="a-3"
       gradientUnits="userSpaceOnUse"
       x1="11"
       x2="11"
       y1="21"
       y2="3"
       gradientTransform="translate(2,2)">
      <stop
         offset="0"
         stop-color="#f7f7f7"
         id="stop2-6" />
      <stop
         offset=".22222222"
         stop-color="#fff"
         id="stop4-7" />
      <stop
         offset=".83333331"
         stop-color="#fff"
         id="stop6-5" />
      <stop
         offset="1"
         stop-color="#f7f7f7"
         id="stop8" />
    </linearGradient>
    <linearGradient
       id="b-3"
       gradientUnits="userSpaceOnUse"
       x1="12.117647"
       x2="12.117647"
       y1="17.352942"
       y2="5.8235288"
       gradientTransform="matrix(0.60714286,0,0,0.60714286,12.142857,10.964286)">
      <stop
         offset="0"
         stop-color="#cfcfcf"
         id="stop11-5" />
      <stop
         offset="0.07142864"
         stop-color="#e7e7e7"
         id="stop13-6" />
      <stop
         offset="0.07142864"
         stop-color="#fff"
         id="stop15" />
      <stop
         offset=".5"
         stop-color="#f3f3f3"
         id="stop17" />
      <stop
         offset="0.93333334"
         stop-color="#f9f9f9"
         id="stop19" />
      <stop
         offset="0.93333334"
         stop-color="#fcfcfc"
         id="stop21" />
      <stop
         offset="1"
         stop-color="#fff"
         id="stop23" />
    </linearGradient>
    <linearGradient
       id="c"
       gradientUnits="userSpaceOnUse"
       x1="12"
       x2="12"
       y1="12"
       y2="17"
       gradientTransform="matrix(0.60714286,0,0,0.60714286,12.142857,10.964286)">
      <stop
         offset="0"
         stop-color="#f8f8f8"
         id="stop26" />
      <stop
         offset="1"
         stop-color="#fff"
         id="stop28" />
    </linearGradient>
    <linearGradient
       inkscape:collect="always"
       xlink:href="#a"
       id="linearGradient880"
       x1="7"
       y1="16"
       x2="7"
       y2="1"
       gradientUnits="userSpaceOnUse" />
    <radialGradient
       id="b"
       cx="17"
       cy="6.5555549"
       gradientTransform="matrix(1.4285714,-6e-8,6e-8,1.4285714,-7.285714,-4.365078)"
       gradientUnits="userSpaceOnUse"
       r="7">
      <stop
         offset="0"
         stop-color="#d7d7d7"
         id="stop9" />
      <stop
         offset=".29999998"
         stop-color="#f7f7f7"
         id="stop11" />
      <stop
         offset="1"
         stop-color="#fff"
         id="stop13" />
    </radialGradient>
    <linearGradient
       id="a-5"
       gradientUnits="userSpaceOnUse"
       x1="15"
       x2="17"
       y1="7"
       y2="4.999999">
      <stop
         offset="0"
         stop-color="#fff"
         id="stop2-62" />
      <stop
         offset=".77967989"
         stop-color="#f1f1f1"
         id="stop4-9" />
      <stop
         offset="1"
         stop-color="#d5d5d5"
         id="stop6" />
    </linearGradient>
  </defs>
  <sodipodi:namedview
     pagecolor="#ffffff"
     bordercolor="#666666"
     borderopacity="1"
     objecttolerance="10"
     gridtolerance="10"
     guidetolerance="10"
     inkscape:pageopacity="0"
     inkscape:pageshadow="2"
     inkscape:window-width="1366"
     inkscape:window-height="706"
     id="namedview14"
     showgrid="true"
     showguides="false"
     inkscape:zoom="20.833333"
     inkscape:cx="9.8692914"
     inkscape:cy="11.691269"
     inkscape:window-x="0"
     inkscape:window-y="0"
     inkscape:window-maximized="1"
     inkscape:current-layer="svg12">
    <inkscape:grid
       type="xygrid"
       id="grid845" />
  </sodipodi:namedview>
  <g
     id="g844"
     transform="translate(-3,-1)">
    <path
       style="fill:url(#b)"
       inkscape:connector-curvature="0"
       id="path16"
       d="M 5,3 V 21 H 19 V 6.7294095 L 15,3 Z" />
    <path
       style="fill:#98989d"
       inkscape:connector-curvature="0"
       id="path18"
       d="M 5,2 C 4.446,2 4,2.446 4,3 v 18 c 0,0.554 0.446,1 1,1 h 14 c 0.554,0 1,-0.446 1,-1 V 10.890625 7.2494041 7.0414802 C 20,6.5908003 20.09887,6.6148851 19.395363,5.973891 L 16.087974,2.7368575 C 15.378449,2 15.376751,2 14.99317,2 H 14.661613 14 Z m 0,1 h 9 v 4 c 0,0.554 0.446,1 1,1 h 4 V 21 H 5 Z" />
    <path
       style="fill:#ffffff;fill-rule:evenodd"
       inkscape:connector-curvature="0"
       id="path20"
       d="m 15,7 h 4 L 15,3 Z" />
    <path
       style="fill:url(#a-5)"
       inkscape:connector-curvature="0"
       id="path22"
       d="m 15,3 4,4 h -4 z" />
  </g>
  <g
     id="g936"
     transform="translate(7,9)">
    <rect
       y="1"
       x="0"
       height="13"
       width="16"
       id="rect872"
       style="fill:url(#linearGradient880);fill-opacity:1;stroke:none;stroke-opacity:1" />
    <path
       style="fill:#69696e;fill-opacity:1;stroke:none"
       sodipodi:nodetypes="ccccccccccccccc"
       inkscape:connector-curvature="0"
       id="path2"
       d="M 1,0 V 13 H 8 C 6.3171014,12.129258 5.3025735,11.920307 4.0957031,11.904297 L 2,12 V 1 C 7,1 7,2 8,3 9,2 9,1 14,1 V 12 L 11.226562,11.884766 C 10.243804,11.941555 9.286517,12.197516 8,13 h 7 V 0 C 12,0 12,0 8,2 5,0 5,0 1,0 Z" />
    <path
       d="M 8,13 C 6.3171014,12.129258 5.3025735,11.920307 4.0957031,11.904297 L 2,12 V 1 C 7,1 7,2 8,3 9,2 9,1 14,1 V 12 L 11.226562,11.884766 C 10.243804,11.941555 9.286517,12.197516 8,13 Z"
       id="path882"
       inkscape:connector-curvature="0"
       sodipodi:nodetypes="ccccccccc"
       style="fill:#ffffff;fill-opacity:1;stroke:none" />
    <path
       style="fill:#98989d;fill-opacity:1;stroke:none;stroke-opacity:1"
       d="m 14,10 v 10.533203 c 0.311417,0.131528 0.63429,0.277577 1,0.466797 0.357658,-0.223095 0.685611,-0.394936 1,-0.541016 V 10 h -0.05859 C 15.582415,10.305975 15.348187,10.651813 15,11 14.651813,10.651813 14.417585,10.305975 14.058594,10 Z"
       transform="translate(-7,-8)"
       id="rect894"
       inkscape:connector-curvature="0" />
  </g>
</svg>
